assets/components_previews/data-display/dark/data_list.svg

<svg width="320" height="232" viewBox="0 0 320 232" fill="none" xmlns="http://www.w3.org/2000/svg">
<g filter="url(#filter0_dd_10060_19354)">
<g clip-path="url(#clip0_10060_19354)">
<rect x="52" y="62" width="216" height="108" rx="12" fill="#0E0F10"/>
<mask id="path-2-inside-1_10060_19354" fill="white">
<path d="M52 62H160V98H52V62Z"/>
</mask>
<path d="M160 98V99H161V98H160ZM159 62V98H161V62H159ZM160 97H52V99H160V97Z" fill="#261958" mask="url(#path-2-inside-1_10060_19354)"/>
<rect x="68" y="75" width="52" height="10" rx="5" fill="#4329AC"/>
<path opacity="0.4" d="M135.392 78.9407C135.5 79.1797 135.738 79.3334 136 79.3334H144C144.262 79.3334 144.5 79.1796 144.608 78.9406C144.716 78.7016 144.673 78.4216 144.5 78.2252L144.499 78.224C144.475 78.1974 144.407 78.1217 144.365 78.0757C144.281 77.9823 144.159 77.8494 144.01 77.6901C143.712 77.3723 143.302 76.9465 142.857 76.519C142.414 76.0943 141.923 75.6549 141.465 75.3173C141.236 75.1489 141.001 74.9951 140.774 74.8809C140.56 74.7735 140.287 74.6667 140 74.6667C139.713 74.6667 139.44 74.7735 139.226 74.8809C138.999 74.9951 138.764 75.1489 138.535 75.3173C138.077 75.6549 137.586 76.0943 137.143 76.519C136.698 76.9465 136.288 77.3723 135.99 77.6902C135.841 77.8494 135.719 77.9823 135.635 78.0757C135.593 78.122 135.525 78.1977 135.502 78.224L135.501 78.2249C135.327 78.4213 135.285 78.7016 135.392 78.9407Z" fill="#4329AC"/>
<path d="M135.392 81.0594C135.5 80.8204 135.738 80.6667 136 80.6667H144C144.262 80.6667 144.5 80.8204 144.608 81.0594C144.716 81.2984 144.673 81.5784 144.5 81.7749L144.499 81.776C144.475 81.8026 144.407 81.8783 144.365 81.9244C144.281 82.0178 144.159 82.1507 144.01 82.3099C143.712 82.6278 143.302 83.0536 142.857 83.481C142.414 83.9058 141.923 84.3452 141.465 84.6827C141.236 84.8512 141.001 85.0049 140.774 85.1192C140.56 85.2266 140.287 85.3334 140 85.3334C139.713 85.3334 139.44 85.2266 139.226 85.1192C138.999 85.0049 138.764 84.8512 138.535 84.6827C138.077 84.3452 137.586 83.9058 137.143 83.481C136.698 83.0535 136.288 82.6278 135.99 82.3099C135.841 82.1506 135.719 82.0178 135.635 81.9243C135.593 81.8781 135.525 81.8023 135.502 81.776L135.501 81.7752C135.327 81.5787 135.285 81.2984 135.392 81.0594Z" fill="#4329AC"/>
<mask id="path-7-inside-2_10060_19354" fill="white">
<path d="M160 62H268V98H160V62Z"/>
</mask>
<path d="M268 97H160V99H268V97Z" fill="#261958" mask="url(#path-7-inside-2_10060_19354)"/>
<rect x="176" y="75" width="52" height="10" rx="5" fill="#4329AC"/>
<path opacity="0.4" d="M243.392 78.9407C243.5 79.1797 243.738 79.3334 244 79.3334H252C252.262 79.3334 252.5 79.1796 252.608 78.9406C252.716 78.7016 252.673 78.4216 252.5 78.2252L252.499 78.224C252.475 78.1974 252.407 78.1217 252.365 78.0757C252.281 77.9823 252.159 77.8494 252.01 77.6901C251.712 77.3723 251.302 76.9465 250.857 76.519C250.414 76.0943 249.923 75.6549 249.465 75.3173C249.236 75.1489 249.001 74.9951 248.774 74.8809C248.56 74.7735 248.287 74.6667 248 74.6667C247.713 74.6667 247.44 74.7735 247.226 74.8809C246.999 74.9951 246.764 75.1489 246.535 75.3173C246.077 75.6549 245.586 76.0943 245.143 76.519C244.698 76.9465 244.288 77.3723 243.99 77.6902C243.841 77.8494 243.719 77.9823 243.635 78.0757C243.593 78.122 243.525 78.1977 243.502 78.224L243.501 78.2249C243.327 78.4213 243.285 78.7016 243.392 78.9407Z" fill="#4329AC"/>
<path d="M243.392 81.0594C243.5 80.8204 243.738 80.6667 244 80.6667H252C252.262 80.6667 252.5 80.8204 252.608 81.0594C252.716 81.2984 252.673 81.5784 252.5 81.7749L252.499 81.776C252.475 81.8026 252.407 81.8783 252.365 81.9244C252.281 82.0178 252.159 82.1507 252.01 82.3099C251.712 82.6278 251.302 83.0536 250.857 83.481C250.414 83.9058 249.923 84.3452 249.465 84.6827C249.236 84.8512 249.001 85.0049 248.774 85.1192C248.56 85.2266 248.287 85.3334 248 85.3334C247.713 85.3334 247.44 85.2266 247.226 85.1192C246.999 85.0049 246.764 84.8512 246.535 84.6827C246.077 84.3452 245.586 83.9058 245.143 83.481C244.698 83.0535 244.288 82.6278 243.99 82.3099C243.841 82.1506 243.719 82.0178 243.635 81.9243C243.593 81.8781 243.525 81.8023 243.502 81.776L243.501 81.7752C243.327 81.5787 243.285 81.2984 243.392 81.0594Z" fill="#4329AC"/>
<mask id="path-12-inside-3_10060_19354" fill="white">
<path d="M52 98H160V134H52V98Z"/>
</mask>
<path d="M160 134V135H161V134H160ZM159 98V134H161V98H159ZM160 133H52V135H160V133Z" fill="#261958" mask="url(#path-12-inside-3_10060_19354)"/>
<rect x="68" y="111" width="52" height="10" rx="5" fill="#2F1C78"/>
<mask id="path-15-inside-4_10060_19354" fill="white">
<path d="M160 98H268V134H160V98Z"/>
</mask>
<path d="M268 133H160V135H268V133Z" fill="#261958" mask="url(#path-15-inside-4_10060_19354)"/>
<rect x="176" y="111" width="52" height="10" rx="5" fill="#2F1C78"/>
<mask id="path-18-inside-5_10060_19354" fill="white">
<path d="M52 134H160V170H52V134Z"/>
</mask>
<path d="M159 134V170H161V134H159Z" fill="#261958" mask="url(#path-18-inside-5_10060_19354)"/>
<rect x="68" y="147" width="52" height="10" rx="5" fill="#2F1C78"/>
<rect x="176" y="147" width="52" height="10" rx="5" fill="#2F1C78"/>
</g>
</g>
<defs>
<filter id="filter0_dd_10060_19354" x="32" y="54" width="256" height="148" filterUnits="userSpaceOnUse" color-interpolation-filters="sRGB">
<feFlood flood-opacity="0" result="BackgroundImageFix"/>
<feColorMatrix in="SourceAlpha" type="matrix" values="0 0 0 0 0 0 0 0 0 0 0 0 0 0 0 0 0 0 127 0" result="hardAlpha"/>
<feOffset dy="12"/>
<feGaussianBlur stdDeviation="10"/>
<feComposite in2="hardAlpha" operator="out"/>
<feColorMatrix type="matrix" values="0 0 0 0 0 0 0 0 0 0 0 0 0 0 0 0 0 0 0.03 0"/>
<feBlend mode="normal" in2="BackgroundImageFix" result="effect1_dropShadow_10060_19354"/>
<feColorMatrix in="SourceAlpha" type="matrix" values="0 0 0 0 0 0 0 0 0 0 0 0 0 0 0 0 0 0 127 0" result="hardAlpha"/>
<feOffset dy="2"/>
<feGaussianBlur stdDeviation="3"/>
<feComposite in2="hardAlpha" operator="out"/>
<feColorMatrix type="matrix" values="0 0 0 0 0 0 0 0 0 0 0 0 0 0 0 0 0 0 0.05 0"/>
<feBlend mode="normal" in2="effect1_dropShadow_10060_19354" result="effect2_dropShadow_10060_19354"/>
<feBlend mode="normal" in="SourceGraphic" in2="effect2_dropShadow_10060_19354" result="shape"/>
</filter>
<clipPath id="clip0_10060_19354">
<rect x="52" y="62" width="216" height="108" rx="12" fill="white"/>
</clipPath>
</defs>
</svg>

<svg xmlns="http://www.w3.org/2000/svg" width="320" height="232" fill="none" viewBox="0 0 320 232"><g filter="url(#a)"><g clip-path="url(#b)"><rect width="216" height="108" x="52" y="62" fill="#0E0F10" rx="12"/><mask id="c" fill="#fff"><path d="M52 62h108v36H52z"/></mask><path fill="#261958" d="M160 98v1h1v-1zm-1-36v36h2V62zm1 35H52v2h108z" mask="url(#c)"/><rect width="52" height="10" x="68" y="75" fill="#4329AC" rx="5"/><path fill="#4329AC" d="M135.392 78.94a.67.67 0 0 0 .608.393h8a.668.668 0 0 0 .5-1.108l-.001-.001-.134-.148a32 32 0 0 0-1.508-1.557 15 15 0 0 0-1.392-1.202 5 5 0 0 0-.691-.436c-.214-.108-.487-.214-.774-.214s-.56.106-.774.214a5 5 0 0 0-.691.436c-.458.338-.949.777-1.392 1.202a32 32 0 0 0-1.641 1.705h-.001a.67.67 0 0 0-.109.717" opacity=".4"/><path fill="#4329AC" d="M135.392 81.06a.67.67 0 0 1 .608-.393h8a.668.668 0 0 1 .5 1.108l-.001.001-.134.148a32 32 0 0 1-1.508 1.557c-.443.425-.934.864-1.392 1.202a5 5 0 0 1-.691.436c-.214.108-.487.214-.774.214s-.56-.106-.774-.214a5 5 0 0 1-.691-.436 15 15 0 0 1-1.392-1.202 32 32 0 0 1-1.641-1.705h-.001a.67.67 0 0 1-.109-.717"/><mask id="d" fill="#fff"><path d="M160 62h108v36H160z"/></mask><path fill="#261958" d="M268 97H160v2h108z" mask="url(#d)"/><rect width="52" height="10" x="176" y="75" fill="#4329AC" rx="5"/><path fill="#4329AC" d="M243.392 78.94a.67.67 0 0 0 .608.393h8a.668.668 0 0 0 .5-1.108l-.001-.001-.134-.148a32 32 0 0 0-1.508-1.557 15 15 0 0 0-1.392-1.202 5 5 0 0 0-.691-.436c-.214-.108-.487-.214-.774-.214s-.56.106-.774.214a5 5 0 0 0-.691.436c-.458.338-.949.777-1.392 1.202a32 32 0 0 0-1.641 1.705h-.001a.67.67 0 0 0-.109.717" opacity=".4"/><path fill="#4329AC" d="M243.392 81.06a.67.67 0 0 1 .608-.393h8a.668.668 0 0 1 .5 1.108l-.001.001-.134.148a32 32 0 0 1-1.508 1.557c-.443.425-.934.864-1.392 1.202a5 5 0 0 1-.691.436c-.214.108-.487.214-.774.214s-.56-.106-.774-.214a5 5 0 0 1-.691-.436 15 15 0 0 1-1.392-1.202 32 32 0 0 1-1.641-1.705h-.001a.67.67 0 0 1-.109-.717"/><mask id="e" fill="#fff"><path d="M52 98h108v36H52z"/></mask><path fill="#261958" d="M160 134v1h1v-1zm-1-36v36h2V98zm1 35H52v2h108z" mask="url(#e)"/><rect width="52" height="10" x="68" y="111" fill="#2F1C78" rx="5"/><mask id="f" fill="#fff"><path d="M160 98h108v36H160z"/></mask><path fill="#261958" d="M268 133H160v2h108z" mask="url(#f)"/><rect width="52" height="10" x="176" y="111" fill="#2F1C78" rx="5"/><mask id="g" fill="#fff"><path d="M52 134h108v36H52z"/></mask><path fill="#261958" d="M159 134v36h2v-36z" mask="url(#g)"/><rect width="52" height="10" x="68" y="147" fill="#2F1C78" rx="5"/><rect width="52" height="10" x="176" y="147" fill="#2F1C78" rx="5"/></g></g><defs><clipPath id="b"><rect width="216" height="108" x="52" y="62" fill="#fff" rx="12"/></clipPath><filter id="a" width="256" height="148" x="32" y="54" color-interpolation-filters="sRGB" filterUnits="userSpaceOnUse"><feFlood flood-opacity="0" result="BackgroundImageFix"/><feColorMatrix in="SourceAlpha" result="hardAlpha" values="0 0 0 0 0 0 0 0 0 0 0 0 0 0 0 0 0 0 127 0"/><feOffset dy="12"/><feGaussianBlur stdDeviation="10"/><feComposite in2="hardAlpha" operator="out"/><feColorMatrix values="0 0 0 0 0 0 0 0 0 0 0 0 0 0 0 0 0 0 0.03 0"/><feBlend in2="BackgroundImageFix" result="effect1_dropShadow_10060_19354"/><feColorMatrix in="SourceAlpha" result="hardAlpha" values="0 0 0 0 0 0 0 0 0 0 0 0 0 0 0 0 0 0 127 0"/><feOffset dy="2"/><feGaussianBlur stdDeviation="3"/><feComposite in2="hardAlpha" operator="out"/><feColorMatrix values="0 0 0 0 0 0 0 0 0 0 0 0 0 0 0 0 0 0 0.05 0"/><feBlend in2="effect1_dropShadow_10060_19354" result="effect2_dropShadow_10060_19354"/><feBlend in="SourceGraphic" in2="effect2_dropShadow_10060_19354" result="shape"/></filter></defs></svg>
